web/app/themes/mjh/resources/assets/images/young-friends.svg

<svg height="16" viewBox="0 0 69 16" width="69" xmlns="http://www.w3.org/2000/svg"><g fill="none" fill-rule="evenodd"><path d="m.85 4.99668583v6.00662837c0 2.2875844 1.85548801 4.1466858 4.14006683 4.1466858h59.01986637c2.2844234 0 4.1400668-1.85736 4.1400668-4.1466858v-6.00662837c0-2.28758441-1.855488-4.14668583-4.1400668-4.14668583h-59.01986637c-2.28442342 0-4.14006683 1.85736003-4.14006683 4.14668583z" stroke="#fff" stroke-width="1.7"/><text fill="#fff" font-family="OSAran-600, OS Aran" font-size="9" font-weight="500"><tspan x="6" y="10.5">YOUNG FRIENDS</tspan></text></g></svg>

<?xml version="1.0" encoding="UTF-8"?>
<svg width="69px" height="16px" viewBox="0 0 69 16" version="1.1" xmlns="http://www.w3.org/2000/svg" xmlns:xlink="http://www.w3.org/1999/xlink">
    <!-- Generator: Sketch 44.1 (41455) - http://www.bohemiancoding.com/sketch -->
    <title>Young friends txt</title>
    <desc>Created with Sketch.</desc>
    <defs></defs>
    <g id="Symbols" stroke="none" stroke-width="1" fill="none" fill-rule="evenodd">
        <g id="Header" transform="translate(-153.000000, -13.000000)">
            <g transform="translate(0.000000, -10.000000)" id="Social">
                <g transform="translate(2.000000, 19.000000)">
                    <g id="Young-friends-txt" transform="translate(151.000000, 4.000000)">
                        <path d="M0.85,4.99668583 L0.85,11.0033142 C0.85,13.2908986 2.70548801,15.15 4.99006683,15.15 L64.0099332,15.15 C66.2943566,15.15 68.15,13.29264 68.15,11.0033142 L68.15,4.99668583 C68.15,2.70910142 66.294512,0.85 64.0099332,0.85 L4.99006683,0.85 C2.70564341,0.85 0.85,2.70736003 0.85,4.99668583 Z" id="Rectangle-2" stroke="#FFFFFF" stroke-width="1.7"></path>
                        <text id="YOUNG-FRIENDS" font-family="OSAran-600, OS Aran" font-size="9" font-weight="500" fill="#FFFFFF">
                            <tspan x="6" y="10.5">YOUNG FRIENDS</tspan>
                        </text>
                    </g>
                </g>
            </g>
        </g>
    </g>
</svg>
